brandFactory_export/3.Masa/Chica_3Masa.svg

<?xml version="1.0" encoding="UTF-8"?>
<svg width="24px" height="24px" viewBox="0 0 24 24" version="1.1" xmlns="http://www.w3.org/2000/svg" xmlns:xlink="http://www.w3.org/1999/xlink">
    <title>3.Masa/Chica_3Masa</title>
    <g id="Symbols" stroke="none" stroke-width="1" fill="none" fill-rule="evenodd">
        <g id="3.Masa/Chica_3Masa" fill="#5CB615" fill-rule="nonzero">
            <path d="M6.41344538,5.94957983 C4.57478992,5.94957983 3.47563025,4.84033613 3.47563025,2.98151261 C3.47563025,2.03361345 3.74453782,1.28739496 4.2789916,0.76302521 C4.79663866,0.255462185 5.51260504,0 6.41344538,0 C7.31428571,0 8.0302521,0.255462185 8.54789916,0.756302521 C9.08571429,1.27731092 9.35798319,2.02689076 9.35798319,2.97815126 C9.35798319,4.84033613 8.25546218,5.94957983 6.41344538,5.94957983 L6.41344538,5.94957983 Z M12.7159664,13.9294118 C12.8739496,14.4 12.8403361,14.897479 12.6285714,15.3344538 C12.4168067,15.7680672 12.0537815,16.0907563 11.6033613,16.2420168 C11.4151261,16.3193277 11.2134454,16.3563025 11.0117647,16.3462185 L11.2134454,17.102521 C11.2705882,17.3210084 11.2268908,17.5529412 11.0890756,17.7310924 C10.9546218,17.9092437 10.7428571,18.0134454 10.5210084,18.0134454 L10.0403361,18.0134454 L10.0201681,21.794958 C10.0201681,22.3663866 9.84537815,22.8436975 9.51932773,23.1697479 C9.31092437,23.3747899 8.94117647,23.6201681 8.3394958,23.6201681 L8.29579832,23.6201681 C7.37142857,23.6 6.69915966,22.8336134 6.69915966,21.7915966 L6.71596639,18.0134454 L6.1512605,18.0134454 L6.17142857,21.7882353 C6.17142857,22.3529412 5.98655462,22.8436975 5.64705882,23.1798319 C5.3512605,23.4722689 4.9512605,23.6302521 4.53445378,23.6201681 L4.4907563,23.6201681 C3.53277311,23.5966387 2.81344538,22.810084 2.81344538,21.7915966 L2.79327731,18.0168067 L2.31260504,18.0168067 C2.08739496,18.0168067 1.8789916,17.912605 1.74453782,17.7344538 C1.60672269,17.5563025 1.56302521,17.3243697 1.62016807,17.1058824 L1.82184874,16.3495798 L1.81848739,16.3495798 C1.61344538,16.3495798 1.41176471,16.312605 1.21344538,16.2420168 C0.779831933,16.0941176 0.416806723,15.7714286 0.205042017,15.3411765 C-0.0100840336,14.9042017 -0.043697479,14.4033613 0.114285714,13.9428571 L1.94621849,8.67226891 C1.9697479,8.59495798 2,8.5210084 2.04369748,8.42689076 C2.57815126,7.18319328 3.80168067,6.37310924 5.15630252,6.37310924 L7.67394958,6.37310924 C9.03529412,6.37310924 10.2621849,7.19327731 10.8,8.4605042 C10.8268908,8.51428571 10.8605042,8.59495798 10.8907563,8.69243697 C10.8941176,8.68571429 12.7159664,13.9294118 12.7159664,13.9294118 Z" id="Chica_3Masa"></path>
        </g>
    </g>
</svg>

<svg width="24" height="24" viewBox="0 0 24 24" xmlns="http://www.w3.org/2000/svg"><path d="M6.413 5.95c-1.838 0-2.937-1.11-2.937-2.968 0-.948.269-1.695.803-2.219C4.797.255 5.513 0 6.413 0c.901 0 1.617.255 2.135.756.538.521.81 1.27.81 2.222 0 1.862-1.103 2.972-2.945 2.972zm6.303 7.98c.158.47.124.967-.087 1.404a1.76 1.76 0 01-1.026.908c-.188.077-.39.114-.591.104l.201.757a.725.725 0 01-.692.91h-.48l-.02 3.782c0 .571-.176 1.049-.502 1.375-.208.205-.578.45-1.18.45h-.043c-.925-.02-1.597-.786-1.597-1.828l.017-3.779h-.565l.02 3.775c0 .565-.184 1.056-.524 1.392-.296.292-.696.45-1.113.44h-.043c-.958-.023-1.678-.81-1.678-1.828l-.02-3.775h-.48a.725.725 0 01-.692-.91l.2-.757h-.003c-.205 0-.406-.037-.605-.108a1.768 1.768 0 01-1.008-.9 1.82 1.82 0 01-.09-1.4l1.831-5.27c.024-.077.054-.151.098-.245a3.39 3.39 0 013.112-2.054h2.518A3.4 3.4 0 0110.8 8.461c.027.053.06.134.09.231.004-.006 1.826 5.237 1.826 5.237z" fill="#5CB615" fill-rule="nonzero"/></svg>
